X:154
T: Én istenem, add megérnem
M: 4/4
L: 1/4
K: F
ggfg | fdcd | 
gfdc | cdBB | 
fedc | dcBd | 
ddcd | GGGG | 

